templates/main/source/images/Payment_cash.svg

<svg xmlns="http://www.w3.org/2000/svg" width="28" height="28" viewBox="0 0 28 28">
  <g fill="#666" fill-rule="evenodd" opacity=".479">
    <path d="M19.2764914,0.371626011 L19.2954914,0.404534976 L19.2985741,0.403545244 L22.2985741,5.59969767 L22.2939914,5.59808932 L25.7764914,11.6299563 L24.467743,12.3847551 C24.3878313,12.375043 24.3064658,12.3700437 24.2239325,12.3700437 L24.2239325,12.3700437 L21.1859325,12.369626 L21.4049942,11.552301 C21.3669353,11.510381 21.3246583,11.4744885 21.2876655,11.4326372 L21.2373269,11.3638928 C20.8788269,10.7429525 21.0906217,9.94979178 21.7124279,9.59079178 C21.7632347,9.56145844 21.8167561,9.54749348 21.8706081,9.53350867 L21.9513362,9.51059305 L22.409966,7.79896322 L20.928466,5.23292994 L19.2205528,4.77640846 L19.1005676,4.89169895 L19.1005676,4.89169895 L19.0320106,4.9418437 C18.4102044,5.3008437 17.6170436,5.08904897 17.2585436,4.46810875 L17.2240488,4.38991756 L17.2240488,4.38991756 L17.1787109,4.22783445 L15.4160535,3.75515141 L5.08696853,9.71865141 L4.61477183,11.4827828 C4.65225345,11.5250362 4.69433792,11.5610397 4.73126665,11.6029281 L4.7815731,11.671691 C4.9120671,11.8977133 4.96699933,12.146554 4.95414178,12.3889443 C3.97668366,12.5203556 3.22393254,13.3572924 3.22393254,14.3700437 L3.22393254,14.3700437 L3.22293254,16.566626 L0.223932543,11.371626 L19.2764914,0.371626011 Z M16.4643136,9.50079114 C16.9726164,10.3811974 17.0013718,11.4213132 16.6362891,12.370338 L9.14882183,12.3700482 C8.9477244,10.919966 9.74364328,9.33952007 11.250212,8.46970222 C13.1631443,7.36527023 15.4975591,7.82632315 16.4643136,9.50079114 Z M19.9284152,7.50079114 C20.3427064,8.21836457 20.0971744,9.13540876 19.3798773,9.54954045 C18.6615798,9.96424973 17.7446302,9.71836457 17.330339,9.00079114 C16.9160478,8.2832177 17.1615798,7.36617352 17.8798773,6.95146424 C18.5971744,6.53733254 19.514124,6.7832177 19.9284152,7.50079114 Z"/>
    <path d="M5.22393254,27.3700437 L5.22393254,14.3700437 L27.2239325,14.3700437 L27.2239325,14.4080437 L27.2270971,14.4087279 L27.2270971,20.4087279 L27.2239325,20.4050437 L27.2239325,27.3700437 L5.22393254,27.3700437 Z M22.1889325,15.3700437 L10.2619325,15.3700437 L8.97093254,16.6617279 C8.98226588,16.7170613 9.00071032,16.7692835 9.01174736,16.8240242 L9.02093254,16.9087279 C9.02093254,17.6257279 8.44093254,18.2067279 7.72393254,18.2067279 C7.63593254,18.2067279 7.55893254,18.1737279 7.47593254,18.1567279 L7.47593254,18.1567279 L6.22393254,19.4080437 L6.22393254,22.3690437 L7.47693254,23.6220437 C7.53226588,23.6113771 7.5844881,23.5931549 7.63922884,23.5821919 L7.72393254,23.5730437 C8.44093254,23.5730437 9.02193254,24.1530437 9.02193254,24.8700437 C9.02193254,24.8990437 9.01826588,24.9270437 9.01274736,24.9545623 L8.97193254,25.1180437 L10.2239325,26.3700437 L22.2239325,26.3700437 L23.4769325,25.1170437 C23.4649325,25.0617104 23.4462659,25.0094882 23.4351548,24.9547474 L23.4259325,24.8700437 C23.4259325,24.1530437 24.0059325,23.5720437 24.7239325,23.5720437 C24.8119325,23.5720437 24.8879325,23.6050437 24.9709325,23.6220437 L24.9709325,23.6220437 L26.2239325,22.3690437 L26.2239325,19.4060437 L24.9730971,18.1567279 C24.9177638,18.1673946 24.865986,18.1856168 24.8115415,18.1965798 L24.7270971,18.2057279 C24.0090971,18.2057279 23.4280971,17.6257279 23.4280971,16.9087279 C23.4280971,16.8207279 23.4610971,16.7437279 23.4790971,16.6607279 L23.4790971,16.6607279 L22.1889325,15.3700437 Z M16.2239325,17.3700437 C18.4327965,17.3700437 20.2239325,18.9365347 20.2239325,20.8700437 C20.2239325,22.8035528 18.4327965,24.3700437 16.2239325,24.3700437 C14.0140497,24.3700437 12.2239325,22.8035528 12.2239325,20.8700437 C12.2239325,18.9365347 14.0140497,17.3700437 16.2239325,17.3700437 Z M22.7245101,19.3700437 C23.5527735,19.3700437 24.2239325,20.0414613 24.2239325,20.8700437 C24.2239325,21.6986262 23.5527735,22.3700437 22.7245101,22.3700437 C21.8950916,22.3700437 21.2239325,21.6986262 21.2239325,20.8700437 C21.2239325,20.0414613 21.8950916,19.3700437 22.7245101,19.3700437 Z M9.72451013,19.3700437 C10.5527735,19.3700437 11.2239325,20.0414613 11.2239325,20.8700437 C11.2239325,21.6986262 10.5527735,22.3700437 9.72451013,22.3700437 C8.89509157,22.3700437 8.22393254,21.6986262 8.22393254,20.8700437 C8.22393254,20.0414613 8.89509157,19.3700437 9.72451013,19.3700437 Z"/>
  </g>
</svg>

<svg xmlns="http://www.w3.org/2000/svg" width="28" height="28" viewBox="0 0 28 28"><g fill="#666" fill-rule="evenodd" opacity=".479"><path d="M19.276.372l.02.033.003-.001 3 5.196-.005-.002 3.482 6.032-1.308.755a2.02 2.02 0 00-.244-.015h-3.038l.219-.818c-.038-.042-.08-.078-.117-.12l-.05-.068a1.297 1.297 0 01.474-1.773.613.613 0 01.159-.057l.08-.023.459-1.712-1.482-2.566-1.707-.457-.12.116-.069.05a1.297 1.297 0 01-1.773-.474l-.035-.078-.045-.162-1.763-.473L5.087 9.72l-.472 1.764c.037.042.08.078.116.12l.05.069c.131.226.186.475.173.717a2 2 0 00-1.73 1.981l-.001 2.197-3-5.195 19.053-11zM16.464 9.5c.509.88.537 1.92.172 2.87H9.15c-.201-1.45.595-3.03 2.101-3.9 1.913-1.105 4.248-.644 5.214 1.03zm3.464-2A1.5 1.5 0 1117.332 9a1.5 1.5 0 012.596-1.5z"/><path d="M5.224 27.37v-13h22v.038h.003v6l-.003-.003v6.965h-22zm16.965-12H10.262L8.97 16.662c.011.055.03.107.04.162l.01.085c0 .717-.58 1.298-1.297 1.298-.088 0-.165-.033-.248-.05l-1.252 1.251v2.961l1.253 1.253c.055-.01.107-.029.162-.04l.085-.009c.717 0 1.298.58 1.298 1.297a.428.428 0 01-.01.085l-.04.163 1.252 1.252h12l1.253-1.253c-.012-.055-.03-.108-.042-.162l-.01-.085c0-.717.58-1.298 1.299-1.298.088 0 .164.033.247.05l1.253-1.253v-2.963l-1.25-1.25c-.056.011-.108.03-.162.04l-.085.01c-.718 0-1.299-.58-1.299-1.297 0-.088.033-.165.051-.248l-1.29-1.291zm-5.965 2c2.209 0 4 1.567 4 3.5 0 1.934-1.791 3.5-4 3.5-2.21 0-4-1.566-4-3.5 0-1.933 1.79-3.5 4-3.5zm6.5 2a1.5 1.5 0 110 3 1.5 1.5 0 010-3zm-13 0a1.5 1.5 0 110 3 1.5 1.5 0 010-3z"/></g></svg>
